X: 16261
T: The Old Stewarts back Again
%R: reel
B: James Oswald "The Caledonian Pocket Companion" v.1 b.6 p.26 #1
S: https://ia800501.us.archive.org/18/items/caledonianpocket01rugg/caledonianpocket01rugg_bw.pdf
Z: 2020 John Chambers <jc:trillian.mit.edu>
M: C|
L: 1/8
K: G
"_Brisk"c |\
BGAG FGAc | BGAF BEEc | BGAG FGAg | fde^c dDD :: g | fgaf gabg |
fgaf beeg | fgaf gabg | fae^c dDD :: c | B/c/d Ad FGAF | B/c/d AF BEEc |
B/c/d Ad B/c/d Ag | f/g/a ^ce dDD :: g | f/g/a df (3gbg ege | f/g/a df geeg |
f/g/a df (3gbg (3ege | f/g/a e^c dDD :: c | B/c/d/B/ AG FdAc | B/c/d/B/ AF eEEc | B/c/d/B/ AG Faeg |
f/g/a ef dDD :: a | fd2f gbeg | fd2f e/d/^c/B/ Aa |fd2f gbeg | fde^c dDD :|


